markets/UMA.svg

<svg width="42" height="42" viewBox="0 0 42 42" fill="none" xmlns="http://www.w3.org/2000/svg">
<circle cx="21" cy="21" r="21" fill="#FF4A4A"/>
<g clip-path="url(#clip0_7698_9600)">
<path d="M25.4916 25.4H24.005C23.7297 25.4 23.4957 25.1743 23.4957 24.878V20.8718L20.8942 22.5364C20.6739 22.6774 20.3987 22.6774 20.1784 22.5364L17.5907 20.8718V24.878C17.5907 25.1602 17.3704 25.4 17.0814 25.4H15.6085C15.3332 25.4 15.0992 25.1743 15.0992 24.878V17.1476C15.0992 16.7668 15.4021 16.4564 15.7737 16.4564C15.9114 16.4564 16.0352 16.4987 16.1454 16.5834L20.2472 19.4752C20.4124 19.6022 20.6464 19.6022 20.8116 19.4752L24.9135 16.5834C25.2163 16.3718 25.643 16.4564 25.8495 16.7668C25.9321 16.8796 25.9596 17.0207 25.9734 17.1476V24.878C25.9871 25.1602 25.7669 25.4 25.4916 25.4Z" fill="white"/>
<path d="M12.8832 25.3859H3.6608C3.28915 25.3859 2.98633 25.0756 2.98633 24.6947V16.922C3.00009 16.6257 3.22033 16.4 3.50939 16.4H4.99598C5.27127 16.4 5.50527 16.6257 5.50527 16.922V22.8326H11.0937V16.922C11.0937 16.6398 11.314 16.4 11.603 16.4H13.0483C13.3236 16.4 13.5576 16.6257 13.5576 16.922V24.6947C13.5576 25.0756 13.2548 25.3859 12.8832 25.3859Z" fill="white"/>
<path d="M28.2171 16.4H37.4394C37.8111 16.4 38.1139 16.7104 38.1139 17.0912V24.864C38.1139 25.1461 37.8937 25.3859 37.6184 25.3859H36.1318C35.8565 25.3859 35.6225 25.1602 35.6225 24.864V19.2919C35.6225 19.1085 35.4711 18.9533 35.2921 18.9533H30.3781C30.1992 18.9533 30.0478 19.1085 30.0478 19.2919V24.864C30.0478 25.1461 29.8275 25.3859 29.5385 25.3859H28.0519C27.7766 25.3859 27.5426 25.1602 27.5426 24.864V17.0912C27.5426 16.7104 27.8454 16.4 28.2171 16.4Z" fill="white"/>
<path d="M32.085 20.5897H33.5578C33.8331 20.5897 34.0671 20.8154 34.0671 21.1116V22.6492C34.0671 22.9314 33.8469 23.1712 33.5578 23.1712H32.085C31.8097 23.1712 31.5757 22.9455 31.5757 22.6492V21.0975C31.5757 20.8154 31.8097 20.5897 32.085 20.5897Z" fill="white"/>
</g>
<defs>
<clipPath id="clip0_7698_9600">
<rect width="35.1" height="9" fill="white" transform="translate(3 16.4)"/>
</clipPath>
</defs>
</svg>

<svg width="42" height="42" viewBox="0 0 42 42" fill="none" xmlns="http://www.w3.org/2000/svg"><circle cx="21" cy="21" r="21" fill="#FF4A4A"/><g clip-path="url(#clip0_7698_9600)" fill="#fff"><path d="M25.492 25.4h-1.487a.514.514 0 01-.51-.522v-4.006l-2.6 1.664a.659.659 0 01-.717 0l-2.587-1.664v4.006c0 .282-.22.522-.51.522h-1.473a.514.514 0 01-.509-.522v-7.73c0-.381.303-.692.675-.692.137 0 .261.043.371.127l4.102 2.892c.165.127.4.127.565 0l4.101-2.892a.67.67 0 01.936.184c.083.113.11.254.124.38v7.731a.492.492 0 01-.481.522zm-12.609-.014H3.661a.684.684 0 01-.675-.691v-7.773c.014-.296.234-.522.523-.522h1.487c.275 0 .51.226.51.522v5.91h5.588v-5.91c0-.282.22-.522.509-.522h1.445c.276 0 .51.226.51.522v7.773c0 .38-.303.69-.675.69zM28.217 16.4h9.222c.372 0 .675.31.675.691v7.773c0 .282-.22.522-.496.522h-1.486a.514.514 0 01-.51-.522v-5.572a.34.34 0 00-.33-.339h-4.914a.34.34 0 00-.33.339v5.572c0 .282-.22.522-.51.522h-1.486a.514.514 0 01-.51-.522v-7.773c0-.38.303-.691.675-.691z"/><path d="M32.085 20.59h1.473c.275 0 .51.225.51.522v1.537a.515.515 0 01-.51.522h-1.473a.514.514 0 01-.51-.522v-1.552c0-.282.235-.507.51-.507z"/></g><defs><clipPath id="clip0_7698_9600"><path fill="#fff" transform="translate(3 16.4)" d="M0 0h35.1v9H0z"/></clipPath></defs></svg>
